X:101
T:Mother Midnight. JJo8.101
%%VWML:JohnsonVol8-2184-p51-0
F:http://www.vwml.org/record/JohnsonVol8/2184/p51
Z:Transcribed by Simon Furey and Lewis Jones
Z:vmp.Simon Wilson 2013 www.village-music-project.org.uk
Z:Dance added by John Chambers 2017
M:6/8
L:1/8
%Q:3/8=120
K:D
A |\
ded cBc | d3 dcB | ABG F2E | FGE D2E |\
FDF AGF | G3 EFG | ABc dB^G | A3- A2 :|
|: E |\
AB=c BAB | G3 EFG | B^cd cBc | A3 ABc |\
d3 def | e3 efg | afd gec | d3- d2 :|
W: First and 2d Cu. foot it and turn Partners .|
W:foot it sides and turn :| Cross over and
W:turn :||. Right hands and Left :||: Right
W:hands across at Bottom .| Left hands across
W:at Top :| Lead thro' Bottom and Top, and
W:turn it out in the Middle :||:
W:
T:Feathers. JJo8.102, The
B:J.Johnson Choice Collection Vol 8 1758
Z:vmp.Simon Wilson 2013 www.village-music-project.org.uk
Z:Dance added by John Chambers 2017
M:2/4
L:1/8
%Q:1/2=90
K:A
|:\
cA2B/c/ | d2cB | Acef | dBTB2 |\
Acef | d2cB | e2Bd | cAA2 :|\
|:\
B2GE | c2AF | BGEc | dBTB2 |
ecAf | d2cB | e2Bd | cAA2 :|\
|:\
a2b/a/g/f/ | ge2f | (d2c).a | (B2A).c |\
df2e/d/ | cBAa | edcB | A2A2 :|
W: First and 2d Cu. foot it and half Right
W:hands and Left .| foot it and half Right hands
W:and Left back again :| Cross over two Cu. :||.
W:Lead up to the Top foot it and cast off :||:
W:Right hands across at Bottom .:||: right
W:hands and Left at Top .:||:.
W:
